X:618
T:Miss Susan Cooper
C:Joe Buchanan's Scottish Tome - Page 182.1
I:182 1
C:Ronnie Cooper
Z:Carl Allison
R:Reel
L:1/8
M:4/4
K:D
u((3ABc) | "D"dfed "G"B2 (dB) | "D"A2 (FA) DAFA | "D"ABde fa^ga | "Em"=g2 (fd) "A7"eAce |
"D"dfed "G"B2 (dB) | "D"A2 (FA) DAFA | "D"ABde "D/F#"fafd | "A7"eAce "D"d2 :|
u(dc) | "Bm"Bcde fBBc | "Bm"def^g "E7"a2 (gf) | "A"eAce a2 (^ga) | "A7"=g2 (fd) eAce |
"D"dfed "G"B2 (dB) | "D"B2 (FA) DAFA | "D"ABde "Bm"fafd | "A7"eAce "D"d2 :|

